packages/bezier-icons/icons/eraser.svg

<svg width="24" height="24" viewBox="0 0 24 24" fill="none" xmlns="http://www.w3.org/2000/svg">
<path fill-rule="evenodd" clip-rule="evenodd" d="M14.8995 2.1487C13.7279 0.977126 11.8284 0.977126 10.6569 2.1487L2.87868 9.92687C1.70711 11.0984 1.70711 12.9979 2.87868 14.1695L7.82843 19.1193C8.4278 19.7186 9.21769 20.0114 10.0032 19.9975L10 20H20V18H13.1903L19.8492 11.3411C21.0208 10.1695 21.0208 8.27002 19.8492 7.09845L14.8995 2.1487ZM18.435 8.51266L13.4853 3.56291C13.0948 3.17239 12.4616 3.17239 12.0711 3.56291L7.12132 8.51266L13.4853 14.8766L18.435 9.92687C18.8256 9.53635 18.8256 8.90318 18.435 8.51266ZM4.29289 11.3411L5.70711 9.92687L12.0711 16.2908L10.6569 17.705C10.2663 18.0956 9.63316 18.0956 9.24264 17.705L4.29289 12.7553C3.90237 12.3648 3.90237 11.7316 4.29289 11.3411Z" fill="#313234"/>
</svg>

<svg xmlns="http://www.w3.org/2000/svg" width="24" height="24" fill="none" viewBox="0 0 24 24"><path fill="#313234" fill-rule="evenodd" d="M14.9 2.149a3 3 0 0 0-4.243 0L2.879 9.927a3 3 0 0 0 0 4.243l4.95 4.95c.599.599 1.389.891 2.174.877L10 20h10v-2h-6.81l6.66-6.659a3 3 0 0 0 0-4.243zm3.535 6.364-4.95-4.95a1 1 0 0 0-1.414 0l-4.95 4.95 6.364 6.364 4.95-4.95a1 1 0 0 0 0-1.414M4.293 11.34l1.414-1.414 6.364 6.364-1.414 1.414a1 1 0 0 1-1.414 0l-4.95-4.95a1 1 0 0 1 0-1.414" clip-rule="evenodd"/></svg>
